X: 27974
T: Mouseskin Shoe, The
R: reel
M: 4/4
K: Gmajor
AdcA c{d}c{B}cA|GEE/{G}E/E Adce|d{f}d{c}de f/{g}f/{e}fge|dged cAA{c}A/{f}A/|
c{d}c{B}ce dfeg|f/g/age fded|c{e}c{B}ce dBAG|E{F}E{D}EG A/c/AGE|
DdcA c{d}c{B}cA|GEE/{G}E/{D}E Adce|d{e}d{c}de f/{g}f/{d}fge|dged cAA/{c}A/{f}A/|
c{d}c{B}ce dfeg|f/g/age fded|c{d}c{B}ce dBAG|E{F}E{D}EG FDD/{F}D/{C}D|
f3 d Adfd|cGE/F/G cedc|AdcA dBAG|E{F}E{D}EG FAde|
f2 fd Adfd|cGE/F/G cedc|AdcA dBAG|E{F}E{D}EG FDD/{F}D/{C}D|
a2 fd Adfd|cGE/F/G cedc|AdcA dBAG|E{F}E{D}EG cBcd|
f/g/age az ge|f/g/age fded|c{d}c{B}ce dBAG|E{F}E{D}G A/c/AGE|D8||

